X:177
T:Red-Haired Charles
R:reel
D:Paddy Glackin: Ceol ar an bhFidil le Paddy Glackin.
Z:id:hn-reel-177
M:C|
K:D
d2dA BAFB|A3B AFEF|D2FA BAFB|ABde feef|
dA~A2 BAFB|AFBF AFEF|D2FA BAFB|1 ABde fddA:|2 ABde fdd2||
|:dD~D2 dDFA|dcde fdef|g2eg fedf|~e3f edBc|
dD~D2 dDFA|dcde fdef|1 g2eg fdec|AFGE EDFA:|2 g2eg fdfa|gabg effe||
